X:1
T:Title
%%score { ( 1 3 4 ) | ( 2 5 ) }
L:1/8
M:4/4
K:Bb
V:1 treble nm="Grand Piano"
V:3 treble 
V:4 treble 
V:2 bass 
V:5 bass 
V:1
 z4 z z/[Q:1/4=100] F/ G>F | d6 z2 | c6 z2 | z z/ F/ F>F F>e d>c | d6 z2 | d6 z2 | %6
 z z/ E/ E>E E>e d>c | z z/ D/ D>D C>d c>F |[M:7/8] B-B-B- B- B3 |[M:1/4] [DF]2 | %10
[M:4/4] [EG]>[EA] [FB]4 c2 | d>e f4 [DF]2 | [EG][EA][FB]c d2 ed |[M:3/4] c6 |[M:1/4] c2 | %15
[M:4/4] d>B [DF]4 [Fd]2 | c>B G4 c2 | dF=EF c2 dc |[M:11/16] B/-B/-B/-B/-B/-B/-B/-B-<B |] %19
V:2
 z8 | z z/ [B,,B,]/ [B,,B,]>[B,,B,] [B,,B,]2 z2 | z z/ [F,A,]/ [F,A,]>[F,A,] [F,A,]2 z2 | %3
 z F, [F,C]>[F,C] [F,C]2 z2 | z z/ [B,,B,]/ [B,,B,]>[B,,B,] [B,,B,]2 z2 | z z/ B,/ B,>B, B,2 z2 | %6
 z z/ [E,B,]/ [E,B,]>[E,B,] [E,B,]2 z2 | z z/ [F,B,]/ [F,B,]>[F,B,] [F,A,]2 z2 | %8
[M:7/8] z z/ [B,,F,]<[B,,F,][B,,F,]/ [B,,F,]3 |[M:1/4] [B,,B,]2 | %10
[M:4/4] [E,B,]>[C,C] [D,B,]4[K:treble] [F,A,F]2 | [B,F]>[B,CF] [B,DF]4[K:bass] [B,,B,]2 | %12
 z4[K:treble] z2 F2[K:bass] |[M:3/4] [F,A,F]2 [C,G,][C,B,] [F,A,]2 |[M:1/4][K:treble] [F,A,F]2 | %15
[M:4/4] [B,F]>[K:bass][B,D] [B,,B,]4 [B,,B,]2 | [E,G,E]>[E,G,E] [E,B,E]4 z2 | z4 z2 .F2 | %18
[M:11/16] B,,[B,,F,][B,,G,][B,,G,][B,,F,]3/2 |] %19
V:3
 x8 | z z/ F/ F>F F>F G>F | z z/ F/ F>F F>F G>F | A6 z2 | z z/ F/ F>F F>F G>F | %5
 z z/ F/ F>F F>f e>d | G6 z2 | F6 z2 |[M:7/8] z z/ D<DE/ D3 |[M:1/4] x2 |[M:4/4] x8 | x8 | x8 | %13
[M:3/4] z2 =EG F2 |[M:1/4] x2 |[M:4/4] x8 | x8 | x8 |[M:11/16] [B,D]DEED3/2 |] %19
V:4
 x8 | x8 | x8 | z C z2 z4 | x8 | x8 | x8 | x8 |[M:7/8] x7 |[M:1/4] x2 |[M:4/4] x8 | x8 | x8 | %13
[M:3/4] x6 |[M:1/4] x2 |[M:4/4] x8 | x8 | x8 |[M:11/16] x11/2 |] %19
V:5
 x8 | x8 | x8 | x8 | x8 | x8 | x8 | x8 |[M:7/8] x7 |[M:1/4] x2 |[M:4/4] x6[K:treble] x2 | %11
 x6[K:bass] x2 | [E,B,][C,C][D,B,][F,A,F][K:treble] [B,F]2 [A,C][K:bass]B, |[M:3/4] x6 | %14
[M:1/4][K:treble] x2 |[M:4/4] x3/2[K:bass] x13/2 | x8 | z4 [F,A,F]2 [F,A,]-[F,A,E] | %18
[M:11/16] x11/2 |] %19

